static/assets/images/icons/json-rpc.svg

<svg width="256" height="256" viewBox="0 0 256 256" fill="none" xmlns="http://www.w3.org/2000/svg">
<path fill-rule="evenodd" clip-rule="evenodd" d="M135.48 89.4484C135.43 89.4306 135.531 89.466 135.48 89.4484C103.052 73.0781 62.2031 95.6331 62.2031 141.354C62.2031 204.984 113.683 222.615 136.093 223C160.424 222.721 183.679 212.622 200.863 194.871C218.047 177.121 227.79 153.134 228 128.063C228 70.15 181.696 36.6271 142.317 33.3853C140.22 33.2127 138.143 33.1259 136.093 33.1259C137.569 32.9064 139.711 32.9624 142.317 33.3853C159.432 36.1625 203.328 54.7604 203.328 115.009C203.328 152.314 170.262 187.355 134.191 178.763C111.596 173.382 103.052 154.469 103.052 133.258C103.052 112.046 119.907 89.4484 135.48 89.4484Z" fill="black"/>
<path fill-rule="evenodd" clip-rule="evenodd" d="M120.52 166.552C120.469 166.534 120.57 166.569 120.52 166.552C152.948 184.035 193.797 160.367 193.797 114.646C193.797 51.0158 142.317 33.386 119.907 33C95.5759 33.2787 72.3211 43.3779 55.1369 61.1286C37.9527 78.8794 28.2096 102.866 28 127.937C28 185.85 74.3036 219.373 113.683 222.615C115.78 222.787 117.857 222.874 119.907 222.874C118.431 223.094 116.289 223.038 113.683 222.615C96.5683 219.837 52.6719 201.24 52.6719 140.991C52.6719 103.686 85.7384 68.6454 121.809 77.2366C144.404 82.6182 152.948 101.531 152.948 122.742C152.948 143.954 136.789 166.552 120.52 166.552Z" fill="black"/>
</svg>

<svg xmlns="http://www.w3.org/2000/svg" viewBox="0 0 256 256"><path fill-rule="evenodd" d="M135.48 89.448c-.05-.017.051.018 0 0-32.428-16.37-73.277 6.185-73.277 51.906 0 63.63 51.48 81.261 73.89 81.646 24.331-.279 47.586-10.378 64.77-28.129 17.184-17.75 26.927-41.737 27.137-66.808 0-57.913-46.304-91.436-85.683-94.678a76 76 0 0 0-6.224-.26c1.476-.219 3.618-.163 6.224.26 17.115 2.778 61.011 21.375 61.011 81.624 0 37.305-33.066 72.346-69.137 63.754-22.595-5.381-31.139-24.294-31.139-45.505s16.855-43.81 32.428-43.81" clip-rule="evenodd"/><path fill-rule="evenodd" d="M120.52 166.552c-.051-.018.05.017 0 0 32.428 17.483 73.277-6.185 73.277-51.906 0-63.63-51.48-81.26-73.89-81.646-24.331.279-47.586 10.378-64.77 28.129C37.953 78.879 28.21 102.866 28 127.937c0 57.913 46.304 91.436 85.683 94.678q3.147.258 6.224.259c-1.476.22-3.618.164-6.224-.259-17.115-2.778-61.011-21.375-61.011-81.624 0-37.305 33.066-72.346 69.137-63.754 22.595 5.381 31.139 24.294 31.139 45.505s-16.159 43.81-32.428 43.81" clip-rule="evenodd"/></svg>
